X: 40976
T: Trip To Dingle, The
R: polka
M: 2/4
K: Dmajor
|:D>E FA|AB F2-|Fd BA|B/d/B/A/ FD|B,2 A,B,|
DE FA|AB F/E/D|EG FE|D>E FA|AB F2-|Fd BA|
B/d/B/A/ FD|B,2 A,B,|DE FA|dB A/F/E|1 DG FE:|2 D2 dc||
|:B2 AB|de f2|ED/E/ FE|ED B,A,|B2 AB|de fa|
ab f/e/d|e2 dc|B2 AB|de f2|ED/E/ FE|
ED B,A,|B,2 A,B,|DE FA|dB A/F/E|1 D2 dc:|2 DG FE||

